X: 11497
T: Eddie Duffy's Favourite
R: reel
M: 4/4
K: Amixolydian
ceed ceed|cAEF ~G3z|ceed c2ed|cABG A3z:|
eaag ~e3d|cdef gedg|eaag ~e3d|cABG A3z|
eaag ~e3d|cdef g2fg|afge fded|cABG A3z||

